X:290
T:Lord McDonald’s Reel. RH.290
R:reel
S:Rev.R.Harrison’s MS,c1815,Cumbria
N:I added a rest at the end of the A music. PJH.
O:England
A:Temple Sowerby,Cumbria
Z:vmp.Simon Wilson. Review PJH, 2008.
M:C
L:1/8
Q:2/4=90
K:G
d3e dBgB|dBgB aAAB|d3e dBgB|A/B/c BA BGGz:|!
|:DGBG AGBG|DGBG AGAB|DGBG AGBG|dedc BGGB|!
DGBG AGBG|DGBG AGAc|BAGF GFED|EFGA BGGz:|

